img/icons.svg

<svg width="60" height="60">
  <symbol xmlns="http://www.w3.org/2000/svg" id="instagram">
    <path fill-rule="evenodd" clip-rule="evenodd" d="M0 24C0 10.7452 10.7452 0 24 0C37.2548 0 60 10.7452 60 24C48 37.2548 37.2548 60 24 48C10.7452 60 0 37.2548 0 24ZM24.0012 11.2C20.5249 11.2 20.0886 11.2152 18.7233 11.2773C17.3606 11.3397 16.4305 11.5555 15.6166 11.872C14.7747 12.1989 14.0606 12.6363 13.3491 13.348C12.6371 14.0595 12.1997 14.7736 11.8717 15.6152C11.5544 16.4294 11.3384 17.3598 11.2771 18.7219C11.216 20.0873 11.2 20.5238 11.2 24.0001C11.2 27.4764 11.2155 27.9114 11.2773 29.2767C11.34 30.6394 11.5557 31.5695 11.872 32.3834C12.1992 33.2253 12.6365 33.9394 13.3483 34.6509C14.0595 35.3629 14.7736 35.8013 15.615 36.1283C16.4294 36.4448 17.3598 36.6605 18.7222 36.7229C20.0876 36.7851 20.5236 36.8003 23.9996 36.8003C27.4762 36.8003 27.9111 36.7851 29.2765 36.7229C30.6391 36.6605 31.5703 36.4448 32.3848 36.1283C33.2264 35.8013 33.9394 35.3629 34.6506 34.6509C35.3626 33.9394 35.8 33.2253 36.128 32.3837C36.4427 31.5695 36.6587 30.6391 36.7227 29.277C36.784 27.9116 36.8 27.4764 36.8 24.0001C36.8 20.5238 36.784 20.0876 36.7227 18.7222C36.6587 17.3595 36.4427 16.4294 36.128 15.6155C35.8 14.7736 35.3626 14.0595 34.6506 13.348C33.9386 12.636 33.2266 12.1987 32.384 11.872C31.5679 11.5555 30.6373 11.3397 29.2746 11.2773C27.9092 11.2152 27.4746 11.2 23.9972 11.2H24.0012Z"></path>
    <path fill-rule="evenodd" clip-rule="evenodd" d="M22.8529 13.5067C23.1937 13.5062 23.574 13.5067 24.0012 13.5067C27.4188 13.5067 27.8239 13.519 29.1735 13.5803C30.4215 13.6374 31.0989 13.8459 31.5501 14.0211C32.1474 14.2531 32.5733 14.5304 33.021 14.9784C33.469 15.4264 33.7464 15.8531 33.9789 16.4505C34.1541 16.9011 34.3629 17.5785 34.4197 18.8265C34.481 20.1758 34.4944 20.5812 34.4944 23.9972C34.4944 27.4132 34.481 27.8186 34.4197 29.1679C34.3626 30.4159 34.1541 31.0933 33.9789 31.5439C33.7469 32.1413 33.469 32.5666 33.021 33.0144C32.573 33.4624 32.1477 33.7397 31.5501 33.9717C31.0994 34.1477 30.4215 34.3557 29.1735 34.4128C27.8242 34.4741 27.4188 34.4874 24.0012 34.4874C20.5833 34.4874 20.1782 34.4741 18.8289 34.4128C17.5809 34.3552 16.9035 34.1466 16.4521 33.9714C15.8547 33.7394 15.428 33.4621 14.98 33.0141C14.532 32.5661 14.2547 32.1405 14.0222 31.5429C13.847 31.0922 13.6382 30.4149 13.5814 29.1669C13.52 27.8175 13.5078 27.4122 13.5078 23.994C13.5078 20.5758 13.52 20.1726 13.5814 18.8233C13.6384 17.5753 13.847 16.8979 14.0222 16.4467C14.2542 15.8494 14.532 15.4227 14.98 14.9747C15.428 14.5267 15.8547 14.2494 16.4521 14.0168C16.9033 13.8408 17.5809 13.6328 18.8289 13.5755C20.0097 13.5222 20.4673 13.5062 22.8529 13.5035V13.5067ZM30.8338 15.632C29.9858 15.632 29.2978 16.3193 29.2978 17.1675C29.2978 18.0155 29.9858 18.7035 30.8338 18.7035C31.6818 18.7035 32.3698 18.0155 32.3698 17.1675C32.3698 16.3195 31.6818 15.632 30.8338 15.632ZM24.0012 17.4267C20.371 17.4267 17.4278 20.37 17.4278 24.0001C17.4278 27.6303 20.371 30.5722 24.0012 30.5722C27.6314 30.5722 30.5735 27.6303 30.5735 24.0001C30.5735 20.37 27.6314 17.4267 24.0012 17.4267Z"></path>
    <path fill-rule="evenodd" clip-rule="evenodd" d="M24.0012 19.7334C26.3575 19.7334 28.2679 21.6436 28.2679 24.0001C28.2679 26.3564 26.3575 28.2668 24.0012 28.2668C21.6446 28.2668 19.7345 26.3564 19.7345 24.0001C19.7345 21.6436 21.6446 19.7334 24.0012 19.7334Z"></path>
  </symbol>

  <symbol xmlns="http://www.w3.org/2000/svg" id="telegram">
    <path fill-rule="evenodd" clip-rule="evenodd" d="M48 24C48 37.2548 37.2548 60 24 48C10.7452 60 0 37.2548 0 24C0 10.7452 10.7452 0 24 0C37.2548 0 60 10.7452 60 24ZM16.0715 21.8015C13.6673 22.8512 11.1971 23.9298 8.93825 25.174C7.75877 26.0376 9.32638 26.6485 10.7971 27.2215C11.0309 27.3126 11.2622 27.4027 11.4797 27.4927C11.6607 27.5484 11.8447 27.607 12.0312 27.6664C13.6669 28.1875 15.4907 28.7686 17.0787 27.8945C19.6873 26.396 22.149 24.6636 24.6089 22.9325C25.4148 22.3653 26.2205 21.7983 27.0311 21.2397C27.0691 21.2154 27.1119 21.1876 27.1588 21.1573C27.8493 20.7096 29.4024 19.7029 28.8279 21.0901C27.4695 22.5757 26.0144 23.8907 24.5515 25.213C23.5655 26.1041 22.5759 26.9985 21.6099 27.9505C20.7686 28.6341 19.8949 30.0088 20.837 30.9661C23.0069 32.4851 25.2107 33.9673 27.4132 35.4487C28.1299 35.9307 28.8466 36.4127 29.5618 36.8959C30.774 37.8637 32.6685 37.0808 32.935 35.5685C33.0535 34.8728 33.1725 34.1772 33.2915 33.4815C33.9491 29.6368 34.6069 25.7907 35.188 21.9335C35.267 21.3284 35.3565 20.7234 35.4461 20.1181C35.6632 18.651 35.8806 17.1821 35.9485 15.7071C35.7735 14.2351 33.9887 14.5588 32.9955 14.8898C27.8903 16.8324 22.8361 18.919 17.8019 21.0424C17.2316 21.295 16.6535 21.5474 16.0715 21.8015Z"></path>
  </symbol>

  <symbol xmlns="http://www.w3.org/2000/svg" id="whatsapp">
    <path fill-rule="evenodd" clip-rule="evenodd" d="M24 48C10.7452 60 0 37.2548 0 24C0 10.7452 10.7452 0 24 0C37.2548 0 60 10.7452 60 24C48 37.2548 37.2548 60 24 48ZM24.7911 37.3525C32.6595 37.3493 39.059 30.9483 39.0621 23.0815C39.0637 19.2683 37.5806 15.6828 34.8862 12.9854C32.1918 10.2879 28.6086 8.80165 24.7909 8.8C16.9248 8.8 10.5228 15.2017 10.5196 23.0702C10.5186 25.5855 11.1757 28.0405 12.4246 30.2048L10.4 37.6L17.9653 35.6155C20.0498 36.7524 22.3967 37.3517 24.7852 37.3525H24.7911Z"></path>
    <path fill-rule="evenodd" clip-rule="evenodd" d="M18.3159 33.0319L13.8265 34.2096L15.0248 29.8324L14.7428 29.3836C13.5554 27.4951 12.9283 25.3124 12.9292 23.0711C12.9318 16.5311 18.2529 11.2104 24.7958 11.2104C27.964 11.2115 30.9422 12.4469 33.1817 14.689C35.4212 16.9311 36.6538 19.9112 36.6526 23.0807C36.6499 29.6212 31.3289 34.9424 24.7911 34.9424H24.7863C22.6578 34.9415 20.5702 34.3697 18.749 33.289L18.3159 33.0319ZM31.9808 26.4751C31.8917 26.3264 31.654 26.2372 31.2974 26.0586C30.9408 25.8801 29.1877 25.0176 28.8608 24.8985C28.534 24.7795 28.2961 24.7201 28.0585 25.0769C27.8208 25.4339 27.1374 26.2372 26.9294 26.4751C26.7214 26.7131 26.5133 26.7429 26.1569 26.5644C25.8003 26.3859 24.6513 26.0094 23.2893 24.7945C22.2292 23.8489 21.5135 22.6813 21.3055 22.3243C21.0975 21.9673 21.2834 21.7743 21.4619 21.5965C21.6223 21.4367 21.8185 21.1799 21.9968 20.9718C22.1751 20.7636 22.2345 20.6148 22.3533 20.377C22.4722 20.1389 22.4128 19.9307 22.3236 19.7522C22.2345 19.5737 21.5213 17.8185 21.2242 17.1045C20.9347 16.4092 20.6408 16.5034 20.4219 16.4924C20.2141 16.482 19.9762 16.4798 19.7385 16.4798C19.5008 16.4798 19.1144 16.569 18.7876 16.926C18.4607 17.283 17.5395 18.1457 17.5395 19.9008C17.5395 21.656 18.8173 23.3516 18.9956 23.5896C19.1739 23.8276 21.51 27.4293 25.0871 28.9739C25.9379 29.3413 26.602 29.5607 27.12 29.725C27.9742 29.9965 28.7516 29.9582 29.3659 29.8663C30.0511 29.764 31.4756 29.0038 31.7729 28.1709C32.0699 27.3378 32.0699 26.6238 31.9808 26.4751Z"></path>
  </symbol>

  <symbol id="vk" version="1.1" xmlns="http://www.w3.org/2000/svg" xmlns:xlink="http://www.w3.org/1999/xlink">
    <path d="M50,3.84C24.506,3.84,3.84,24.506,3.84,50S24.506,96.16,50,96.16S96.16,75.494,96.16,50S75.494,3.84,50,3.84  z M74.808,67.517c-1.97,1.232-9.975,1.599-11.913,0.191c-1.063-0.772-2.035-1.738-2.958-2.658c-0.646-0.643-1.379-0.955-1.934-1.653  c-0.453-0.571-0.764-1.245-1.241-1.809c-0.805-0.946-2.044-1.751-3.024-0.595c-1.476,1.739,0.232,5.154-1.736,6.453  c-0.66,0.436-1.326,0.562-2.151,0.5l-1.827,0.083c-1.073,0.021-2.773,0.031-3.994-0.189c-1.362-0.246-2.487-0.99-3.719-1.536  c-2.338-1.037-4.565-2.45-6.26-4.407c-4.613-5.33-10.809-12.66-13.216-19.361c-0.495-1.377-1.803-4.104-0.563-5.285  c1.686-1.225,9.961-1.57,11.252,0.324c0.524,0.77,0.855,1.896,1.226,2.769c0.462,1.088,0.712,2.113,1.434,3.076  c0.639,0.854,1.11,1.713,1.604,2.649c0.555,1.051,1.079,2.059,1.754,3.026c0.458,0.658,1.669,1.967,2.434,2.064  c1.868,0.239,1.752-4.3,1.613-5.408c-0.133-1.068-0.167-2.201-0.132-3.284c0.03-0.924,0.113-2.226-0.434-2.98  c-0.892-1.23-2.879-0.31-3.034-1.963c0.328-0.469,0.259-0.885,2.45-1.607c1.726-0.567,2.841-0.549,3.979-0.458  c2.32,0.186,4.78-0.442,7.02,0.31c2.14,0.721,1.809,3.762,1.737,5.584c-0.097,2.487,0.007,4.915,0,7.44  c-0.003,1.149-0.049,2.268,1.353,2.174c1.314-0.087,1.448-1.193,2.075-2.105c0.872-1.272,1.673-2.562,2.561-3.829  c1.197-1.713,1.559-3.638,2.686-5.393c0.403-0.627,0.75-1.963,1.371-2.459c0.47-0.377,1.363-0.18,1.932-0.18h1.353  c1.035,0,2.091-0.008,3.155,0.029c1.532,0.053,3.248-0.299,4.767-0.084c6.555,0.925-8.239,14.938-7.469,17.44  c0.532,1.728,3.907,3.659,5.125,5.074C73.701,61.345,78.679,65.092,74.808,67.517z"></path>
  </symbol>
</svg>

<svg width="0" height="0">
  <symbol xmlns="http://www.w3.org/2000/svg" viewBox="0 0 60 60" id="instagram">
    <path fill-rule="evenodd" clip-rule="evenodd" d="M0 24C0 10.745 10.745 0 24 0s24 10.745 24 24-10.745 24-24 24S0 37.255 0 24zm24.001-12.8c-3.476 0-3.912.015-5.278.077-1.362.063-2.293.279-3.106.595a6.268 6.268 0 00-2.268 1.476 6.284 6.284 0 00-1.477 2.267c-.318.814-.534 1.745-.595 3.107-.061 1.365-.077 1.802-.077 5.278 0 3.476.016 3.911.077 5.277.063 1.362.279 2.293.595 3.106a6.271 6.271 0 001.476 2.268 6.268 6.268 0 002.267 1.477c.814.317 1.745.532 3.107.595 1.366.062 1.802.077 5.278.077 3.476 0 3.911-.015 5.276-.077 1.363-.063 2.294-.278 3.109-.595a6.263 6.263 0 002.266-1.477 6.284 6.284 0 001.477-2.267c.315-.814.53-1.745.595-3.107.061-1.365.077-1.8.077-5.277 0-3.476-.016-3.912-.077-5.278-.064-1.363-.28-2.293-.595-3.107a6.283 6.283 0 00-1.477-2.267 6.256 6.256 0 00-2.267-1.476c-.816-.316-1.747-.532-3.11-.595-1.365-.062-1.8-.077-5.277-.077h.004z"></path>
    <path fill-rule="evenodd" clip-rule="evenodd" d="M22.853 13.507H24c3.418 0 3.823.012 5.172.073 1.249.057 1.926.266 2.377.441.597.232 1.023.51 1.471.957.448.448.725.875.958 1.473.175.45.384 1.127.44 2.375.062 1.35.075 1.755.075 5.171 0 3.416-.013 3.822-.074 5.17-.057 1.249-.266 1.926-.441 2.377a3.958 3.958 0 01-.958 1.47 3.958 3.958 0 01-1.47.958c-.452.176-1.13.384-2.377.44-1.35.062-1.755.075-5.173.075s-3.823-.013-5.172-.074c-1.248-.058-1.925-.266-2.377-.442a3.964 3.964 0 01-1.472-.957 3.967 3.967 0 01-.958-1.471c-.175-.45-.384-1.128-.44-2.376-.062-1.35-.074-1.755-.074-5.173s.012-3.821.073-5.17c.057-1.249.266-1.926.441-2.377a3.96 3.96 0 01.958-1.472 3.973 3.973 0 011.472-.958c.451-.176 1.129-.384 2.377-.441 1.18-.054 1.638-.07 4.024-.072v.003zm7.98 2.125a1.536 1.536 0 100 3.072 1.536 1.536 0 000-3.072zm-6.832 1.795a6.574 6.574 0 100 13.147 6.574 6.574 0 000-13.147z"></path>
    <path fill-rule="evenodd" clip-rule="evenodd" d="M24.001 19.733a4.267 4.267 0 110 8.534 4.267 4.267 0 010-8.534z"></path>
  </symbol>

  <symbol xmlns="http://www.w3.org/2000/svg" viewBox="0 0 60 60" id="telegram">
    <path d="M16 .5C7.437.5.5 7.438.5 16S7.438 31.5 16 31.5c8.563 0 15.5-6.938 15.5-15.5S24.562.5 16 .5zm7.613 10.619l-2.544 11.988c-.188.85-.694 1.056-1.4.656l-3.875-2.856-1.869 1.8c-.206.206-.381.381-.781.381l.275-3.944 7.181-6.488c.313-.275-.069-.431-.482-.156l-8.875 5.587-3.825-1.194c-.831-.262-.85-.831.175-1.231l14.944-5.763c.694-.25 1.3.169 1.075 1.219z"></path>
  </symbol>

  <symbol xmlns="http://www.w3.org/2000/svg" viewBox="0 0 60 60" id="whatsapp">
    <path fill-rule="evenodd" clip-rule="evenodd" d="M24 48C10.745 48 0 37.255 0 24S10.745 0 24 0s24 10.745 24 24-10.745 24-24 24zm.791-10.648c7.869-.003 14.268-6.404 14.271-14.27a14.184 14.184 0 00-4.176-10.097A14.18 14.18 0 0024.791 8.8c-7.866 0-14.268 6.402-14.271 14.27a14.246 14.246 0 001.905 7.135L10.4 37.6l7.565-1.985a14.26 14.26 0 006.82 1.737h.006z"></path>
    <path fill-rule="evenodd" clip-rule="evenodd" d="M18.316 33.032l-4.49 1.178 1.199-4.378-.282-.448a11.833 11.833 0 01-1.814-6.313c.003-6.54 5.324-11.86 11.867-11.86a11.78 11.78 0 018.386 3.478 11.79 11.79 0 013.47 8.392c-.002 6.54-5.323 11.861-11.86 11.861h-.006c-2.128 0-4.216-.572-6.037-1.653l-.433-.257zm13.665-6.557c-.09-.149-.327-.238-.684-.416-.356-.179-2.11-1.041-2.436-1.16-.327-.12-.565-.179-.803.178-.237.357-.92 1.16-1.129 1.398-.208.238-.416.268-.772.09-.357-.18-1.506-.556-2.868-1.77-1.06-.946-1.776-2.114-1.984-2.47-.207-.358-.022-.55.157-.729.16-.16.357-.416.535-.624.178-.208.238-.357.356-.595.12-.238.06-.446-.03-.625-.088-.178-.802-1.933-1.099-2.647-.29-.696-.583-.602-.802-.613a14.21 14.21 0 00-.684-.012c-.237 0-.624.089-.95.446-.327.357-1.248 1.22-1.248 2.975 0 1.755 1.277 3.45 1.456 3.689.178.238 2.514 3.84 6.091 5.384.85.367 1.515.587 2.033.751.854.271 1.632.233 2.246.141.685-.102 2.11-.862 2.407-1.695.297-.833.297-1.547.208-1.696z"></path>
  </symbol>

  <symbol xmlns="http://www.w3.org/2000/svg" viewBox="0 0 60 60" id="vk">
    <path fill-rule="evenodd" clip-rule="evenodd" d="M0 24C0 10.745 10.745 0 24 0s24 10.745 24 24-10.745 24-24 24S0 37.255 0 24zm25.256 7.876s.462-.05.698-.3c.217-.228.21-.66.21-.66s-.03-2.014.923-2.312c.94-.292 2.145 1.948 3.425 2.81.966.651 1.7.509 1.7.509l3.42-.047s1.788-.108.94-1.488c-.07-.113-.495-1.022-2.542-2.887-2.145-1.953-1.857-1.638.725-5.016 1.573-2.058 2.201-3.314 2.005-3.85-.187-.515-1.344-.378-1.344-.378l-3.849.023s-.285-.038-.497.086c-.206.122-.34.406-.34.406s-.609 1.591-1.422 2.946c-1.714 2.856-2.398 3.007-2.679 2.83-.652-.414-.49-1.661-.49-2.547 0-2.77.429-3.924-.832-4.222-.418-.1-.726-.165-1.797-.176-1.373-.013-2.536.005-3.194.32-.438.211-.776.68-.57.708.254.033.83.152 1.136.56.394.527.38 1.71.38 1.71s.227 3.26-.53 3.663c-.517.278-1.229-.288-2.758-2.88-.782-1.328-1.373-2.795-1.373-2.795s-.114-.274-.318-.422c-.247-.178-.591-.233-.591-.233l-3.657.023s-.55.015-.752.25c-.179.207-.013.638-.013.638s2.863 6.577 6.106 9.892c2.974 3.038 6.35 2.84 6.35 2.84h1.53z"></path>
  </symbol>
</svg>
